X:1
T:D minor                    Jacob French, 1789
T:Isaac Watts, 1717 (Psalm 80)                   88. 88. (L. M.)
T:Castle Island
T:Transcribed from  The New American Melody, 1789.
%%score [ 1 2 3 4 ]
L:1/8
Q:1/4=100
M:2/2
K:F
V:1 treble nm="Tr." snm="Tr."
V:2 treble nm="C." snm="C."
V:3 treble-8 nm="T." snm="T."
V:4 bass nm="B." snm="B."
V:1
 d4 | c4 A4 | d4 c4 | c4 B4 | A4 A4 | (A3 B) c4 | d4 c4 | (d2 A2 A2) A2 | A4 A4 | d4 A4 | %10
w: 1.~Great|God, whom|hea- venly|hosts o-|bey, How|long~ * shall|we la-|ment~ * * and|pray, And|wait in|
 (A2 B2) (A2 d2) | (^cd e2) (fe d2) | ^c4 c4 | d4 (c2 A2) | (A2 d2) (AB c2) | (c2 B2) A4 | A8 |] %17
w: vain * thy *|kind * * re- * *|turn? How|long shall *|thy * fierce * *|an- * ger|burn?|
V:2
 D4 | (A3 G) F4 | A4 A4 | A4 (G2 F2) | E4 E4 | F4 G4 | A4 G4 | (3(A2 G2 F2) E4 | F4 F4 | F4 A4 | %10
w: 2.~Thy|own * Son,|sure- ly|he shall *|stand Girt|with thy|strength at|thy * * right|hand; Thy|first- born|
 (A2 G2) F4 | A4 A4 | A4 A4 | A4 A4 | A4 (F2 G2) | (A2 G2 F2) E2 | F8 |] %17
w: Son, * a-|dorned and|blest With|power and|grace a- *|bove * * the|rest.|
V:3
 A4 | A4 d4 | f4 e4 | (f3 e) d4 | ^c4 c4 | d4 e4 | f4 (e2 g2) | (3(f2 e2 d2) ^c4 | d4 d4 | A4 d4 | %10
w: 3.~O|for his|sake at-|tend * our|cry, Shine|on thy|chur- ches *|lest * * they|die; Turn|us to|
 c4 (d2 f2) | (e2 ^c2) (d2 f2) | e4 e4 | f4 e4 | (d2 A2) (d2 e2) | (3(f2 e2 d2) (3(^c2 d2 e2) | %16
w: thee, thy *|love * re- *|store, We|shall be|saved, * and *|sigh * * no * *|
 d8 |] %17
w: more.|
V:4
 D,4 | (F,3 E,) D,4 | D,4 [A,,A,]4 | [F,,F,]4 [G,,G,]4 | [A,,A,]4 [A,,A,]4 | F,4 E,4 | %6
 D,4 (E,2 C,2) | D,4 A,,4 | D,4 D,4 | D,4 D,4 | (F,2 E,2) D,4 | [A,,A,]4 D,4 | [A,,A,]4 [A,,A,]4 | %13
 D,4 A,,4 | D,4 (D,2 C,2) | ([F,,F,]2 [G,,G,]2 [A,,A,]2) A,,2 | D,8 |] %17

